svg/fluentui-system-icons/ic_fluent_text_density_20_filled.svg

<svg width="20" height="20" viewBox="0 0 20 20" fill="none" xmlns="http://www.w3.org/2000/svg">
<path d="M10.5 2C10.7761 2 11 2.22386 11 2.5V17.5C11 17.7761 10.7761 18 10.5 18C10.2239 18 10 17.7761 10 17.5V2.5C10 2.22386 10.2239 2 10.5 2ZM9 5H2.5C2.22386 5 2 5.22386 2 5.5C2 5.77614 2.22386 6 2.5 6H9V5ZM9 8H2.5C2.22386 8 2 8.22386 2 8.5C2 8.77614 2.22386 9 2.5 9H9V8ZM9 11H2.5C2.22386 11 2 11.2239 2 11.5C2 11.7761 2.22386 12 2.5 12H9V11ZM9 14H2.5C2.22386 14 2 14.2239 2 14.5C2 14.7761 2.22386 15 2.5 15H9V14ZM16.5 14H12V11H16.5C17.3284 11 18 11.6716 18 12.5C18 13.3284 17.3284 14 16.5 14ZM16.5 9H12V6H16.5C17.3284 6 18 6.67157 18 7.5C18 8.32843 17.3284 9 16.5 9Z" fill="#212121"/>
</svg>

<svg xmlns="http://www.w3.org/2000/svg" width="20" height="20"><path d="M10.5 2a.5.5 0 0 1 .5.5v15a.5.5 0 0 1-1 0v-15a.5.5 0 0 1 .5-.5ZM9 5H2.5a.5.5 0 0 0 0 1H9V5Zm0 3H2.5a.5.5 0 0 0 0 1H9V8Zm0 3H2.5a.5.5 0 0 0 0 1H9v-1Zm0 3H2.5a.5.5 0 0 0 0 1H9v-1Zm7.5 0H12v-3h4.5a1.5 1.5 0 0 1 0 3Zm0-5H12V6h4.5a1.5 1.5 0 0 1 0 3Z"/></svg>
